src/assets/review-border.svg

<svg width="62" height="92" viewBox="0 0 62 92" fill="none" xmlns="http://www.w3.org/2000/svg">
<g filter="url(#filter0_d_419_154721)">
<path d="M13.3454 3.36829C13.3432 3.27146 13.3415 3.19723 13.3404 3.16244C13.3903 2.00711 14.2978 1.06196 15.4635 0.961194C15.4744 0.960709 15.4864 0.960168 15.4996 0.959578C15.7442 0.948617 16.3642 0.920827 16.7105 0.922969C17.4372 0.927462 18.4466 0.974252 19.5925 1.14449C21.8308 1.47703 24.8662 2.32127 27.2366 4.52279C28.8722 6.04183 29.8772 7.91531 30.5004 9.65107C30.8156 9.13084 31.1166 8.6866 31.3702 8.33359C31.5706 8.05469 31.9558 7.5731 32.1087 7.38196L32.1322 7.35258C32.9061 6.46409 34.229 6.29404 35.2055 6.95754L35.2111 6.96132L35.2352 6.97927C35.4277 7.12213 35.9264 7.4924 36.1946 7.71366C36.753 8.17445 37.5027 8.84584 38.2786 9.69856C39.7941 11.3641 41.5976 13.9274 42.0156 17.1213C42.2829 19.1641 41.9358 21.1006 41.3795 22.7526C41.7507 22.5773 42.0891 22.431 42.3811 22.3119C42.7006 22.1815 43.2853 21.9772 43.5174 21.896L43.553 21.8836C44.6853 21.5398 45.8971 22.0952 46.3675 23.1735L46.3891 23.2391C46.6344 23.9854 47.3026 26.0184 47.4947 27.1156C47.8818 29.3255 48.0294 32.4465 46.6653 35.37C46.0134 36.7673 45.1029 37.9334 44.1171 38.8945C44.8082 38.9059 45.4134 38.9506 45.8928 39.0001C46.2372 39.0357 46.8504 39.1309 47.0923 39.1685L47.128 39.174C48.291 39.4043 49.0943 40.4694 48.9908 41.6417L48.9864 41.6758C48.955 41.9153 48.875 42.5259 48.8126 42.8641C48.6821 43.5725 48.4604 44.5493 48.0922 45.638C47.3727 47.7649 46.0058 50.5798 43.4047 52.5099C42.0776 53.4946 40.6176 54.1092 39.2054 54.4865C39.6054 55.0521 39.7443 55.7867 39.5285 56.4896L39.517 56.5221C39.4363 56.7501 39.2308 57.331 39.0993 57.6491C38.8239 58.3155 38.4034 59.2259 37.8162 60.2157C36.6689 62.1497 34.7449 64.6239 31.7983 65.9804C28.8523 67.3366 25.7032 67.1984 23.4718 66.8208C22.3297 66.6276 21.3561 66.3593 20.6644 66.1385C20.3352 66.0333 19.7558 65.8152 19.5264 65.7288L19.492 65.7158C18.4011 65.2524 17.8363 64.0448 18.1821 62.9184L18.1935 62.8861C18.2742 62.658 18.4798 62.077 18.6113 61.7589C18.8867 61.0925 19.3072 60.1821 19.8944 59.1923C21.0417 57.2583 22.9657 54.7842 25.9123 53.4276C27.0785 52.8908 28.2765 52.5881 29.4368 52.4417C29.4381 52.3943 29.4408 52.3467 29.445 52.299L29.4495 52.265C29.4808 52.0255 29.5609 51.4148 29.6232 51.0766C29.7537 50.3682 29.9754 49.3914 30.3437 48.3027C31.0005 46.3607 32.1972 43.8454 34.38 41.9535C34.3448 41.89 34.3124 41.8244 34.2829 41.7567L34.2699 41.7232C34.1822 41.4966 33.9599 40.9221 33.8528 40.5959C33.6279 39.9111 33.3544 38.9473 33.1562 37.816C32.7691 35.6061 32.6216 32.485 33.9856 29.5616C34.1288 29.2547 34.2844 28.9591 34.4506 28.6743C34.2807 28.5452 34.1071 28.4109 33.9833 28.3087C33.4249 27.8479 32.6752 27.1765 31.8993 26.3238C30.3838 24.6583 28.5803 22.095 28.1623 18.9011C28.1324 18.6728 28.1102 18.4458 28.0951 18.2204C27.3786 18.2118 26.4146 18.1613 25.3277 17.9999C23.0893 17.6673 20.054 16.8231 17.6835 14.6216C15.3124 12.4194 14.2666 9.47238 13.7879 7.27989C13.5429 6.15768 13.4311 5.16258 13.3801 4.44426C13.3645 4.22508 13.3523 3.67975 13.3454 3.36829Z" fill="url(#paint0_linear_419_154721)"/>
<path d="M13.3389 3.20826L13.3404 3.16244C13.3392 3.12498 13.3387 3.13324 13.3389 3.20826Z" fill="url(#paint1_linear_419_154721)"/>
</g>
<defs>
<filter id="filter0_d_419_154721" x="0.935919" y="0.922852" width="60.467" height="90.9621" filterUnits="userSpaceOnUse" color-interpolation-filters="sRGB">
<feFlood flood-opacity="0" result="BackgroundImageFix"/>
<feColorMatrix in="SourceAlpha" type="matrix" values="0 0 0 0 0 0 0 0 0 0 0 0 0 0 0 0 0 0 127 0" result="hardAlpha"/>
<feOffset dy="12.4029"/>
<feGaussianBlur stdDeviation="6.20147"/>
<feComposite in2="hardAlpha" operator="out"/>
<feColorMatrix type="matrix" values="0 0 0 0 0 0 0 0 0 0 0 0 0 0 0 0 0 0 0.25 0"/>
<feBlend mode="normal" in2="BackgroundImageFix" result="effect1_dropShadow_419_154721"/>
<feBlend mode="normal" in="SourceGraphic" in2="effect1_dropShadow_419_154721" result="shape"/>
</filter>
<linearGradient id="paint0_linear_419_154721" x1="31.1693" y1="0.922852" x2="31.1693" y2="67.0789" gradientUnits="userSpaceOnUse">
<stop stop-color="#188078"/>
<stop offset="0.509615" stop-color="#50CAC1"/>
<stop offset="1" stop-color="#02443F"/>
</linearGradient>
<linearGradient id="paint1_linear_419_154721" x1="31.1693" y1="0.922852" x2="31.1693" y2="67.0789" gradientUnits="userSpaceOnUse">
<stop stop-color="#188078"/>
<stop offset="0.509615" stop-color="#50CAC1"/>
<stop offset="1" stop-color="#02443F"/>
</linearGradient>
</defs>
</svg>

<svg xmlns="http://www.w3.org/2000/svg" width="62" height="92" fill="none"><g filter="url(#a)"><path fill="url(#b)" d="m13.345 3.368-.005-.206c.05-1.155.958-2.1 2.124-2.2L15.5.96c.244-.011.864-.04 1.21-.037.727.004 1.737.051 2.883.221 2.238.333 5.273 1.177 7.644 3.379 1.635 1.519 2.64 3.392 3.263 5.128.316-.52.617-.964.87-1.317.2-.28.586-.76.739-.952l.023-.03a2.34 2.34 0 0 1 3.074-.394l.005.003.024.018c.193.143.691.513.96.735.558.46 1.308 1.132 2.084 1.985 1.515 1.665 3.319 4.228 3.737 7.422.267 2.043-.08 3.98-.636 5.632.37-.176.71-.322 1.001-.441.32-.13.904-.335 1.136-.416l.036-.012a2.33 2.33 0 0 1 2.815 1.29l.021.065c.245.746.914 2.78 1.106 3.877.387 2.21.534 5.33-.83 8.254-.652 1.397-1.562 2.563-2.548 3.525.691.01 1.296.056 1.776.105.344.036.957.13 1.2.169l.035.005a2.315 2.315 0 0 1 1.863 2.468l-.005.034c-.031.24-.111.85-.173 1.188a20 20 0 0 1-.72 2.774c-.72 2.127-2.087 4.942-4.688 6.872-1.327.985-2.787 1.6-4.2 1.977.4.565.54 1.3.324 2.003l-.012.032c-.08.228-.286.809-.418 1.127a20 20 0 0 1-1.283 2.567c-1.147 1.934-3.071 4.408-6.018 5.764-2.946 1.357-6.095 1.218-8.326.84a21 21 0 0 1-2.808-.681c-.329-.106-.908-.324-1.138-.41l-.034-.013a2.307 2.307 0 0 1-1.31-2.798l.012-.032c.08-.228.286-.809.417-1.127.276-.666.696-1.577 1.283-2.567 1.148-1.934 3.072-4.408 6.018-5.764a12 12 0 0 1 3.525-.986q.002-.072.008-.143l.005-.034c.03-.24.11-.85.173-1.188.13-.709.352-1.686.72-2.774.657-1.942 1.854-4.458 4.037-6.35a2 2 0 0 1-.097-.196l-.013-.034c-.088-.226-.31-.8-.417-1.127a20 20 0 0 1-.697-2.78c-.387-2.21-.534-5.331.83-8.254q.214-.46.465-.888c-.17-.129-.344-.263-.468-.365a20.4 20.4 0 0 1-2.084-1.985c-1.515-1.666-3.319-4.229-3.737-7.423a11 11 0 0 1-.067-.68c-.716-.01-1.68-.06-2.767-.221-2.239-.333-5.274-1.177-7.645-3.378-2.37-2.203-3.416-5.15-3.895-7.342a20 20 0 0 1-.408-2.836c-.016-.219-.028-.764-.035-1.076"/><path fill="url(#c)" d="m13.339 3.208.001-.046z"/></g><defs><linearGradient id="b" x1="31.169" x2="31.169" y1=".923" y2="67.079" gradientUnits="userSpaceOnUse"><stop stop-color="#188078"/><stop offset=".51" stop-color="#50CAC1"/><stop offset="1" stop-color="#02443F"/></linearGradient><linearGradient id="c" x1="31.169" x2="31.169" y1=".923" y2="67.079" gradientUnits="userSpaceOnUse"><stop stop-color="#188078"/><stop offset=".51" stop-color="#50CAC1"/><stop offset="1" stop-color="#02443F"/></linearGradient><filter id="a" width="60.467" height="90.962" x=".936" y=".923" color-interpolation-filters="sRGB" filterUnits="userSpaceOnUse"><feFlood flood-opacity="0" result="BackgroundImageFix"/><feColorMatrix in="SourceAlpha" result="hardAlpha" values="0 0 0 0 0 0 0 0 0 0 0 0 0 0 0 0 0 0 127 0"/><feOffset dy="12.403"/><feGaussianBlur stdDeviation="6.201"/><feComposite in2="hardAlpha" operator="out"/><feColorMatrix values="0 0 0 0 0 0 0 0 0 0 0 0 0 0 0 0 0 0 0.25 0"/><feBlend in2="BackgroundImageFix" result="effect1_dropShadow_419_154721"/><feBlend in="SourceGraphic" in2="effect1_dropShadow_419_154721" result="shape"/></filter></defs></svg>
